dist/flags/s/458.svg

<svg width="16" height="12" viewBox="0 0 16 12" fill="none" xmlns="http://www.w3.org/2000/svg">
<mask id="mask0" mask-type="alpha" maskUnits="userSpaceOnUse" x="0" y="0" width="16" height="12">
<rect width="16" height="12" fill="white"/>
</mask>
<g mask="url(#mask0)">
<path fill-rule="evenodd" clip-rule="evenodd" d="M0 0H16V12H0V0Z" fill="#F7FCFF"/>
<rect x="0.0135803" y="2.5" width="16" height="1.45" fill="#E31D1C"/>
<rect x="0.0135803" y="5.09998" width="16" height="1.45" fill="#E31D1C"/>
<rect x="0.0558319" y="7.59998" width="16" height="1.25" fill="#E31D1C"/>
<rect x="0.0558319" y="10.1" width="16" height="1.35" fill="#E31D1C"/>
<path fill-rule="evenodd" clip-rule="evenodd" d="M0 0H16V1.25H0V0Z" fill="#E31D1C"/>
<path fill-rule="evenodd" clip-rule="evenodd" d="M0 0H8V6H0V0Z" fill="#3D58DB"/>
<path fill-rule="evenodd" clip-rule="evenodd" d="M1.79677 3.10108C1.79677 3.78919 2.12088 4.4399 2.78025 4.4399C3.76954 4.4399 3.96201 4.22899 4.42363 3.938C4.53277 4.18314 4.16465 5.23219 2.76675 5.23219C1.64862 5.20968 0.74501 4.31141 0.74501 3.10108C0.74501 1.71182 1.7668 0.961548 2.73869 0.970042C3.59671 0.970042 4.50672 1.45692 4.47884 2.07803C4.07456 1.68311 3.63559 1.68311 2.90485 1.68311C2.1741 1.68311 1.79677 2.41288 1.79677 3.10108Z" fill="#FECA00"/>
<path fill-rule="evenodd" clip-rule="evenodd" d="M5.5 3.65002L5.03647 4.32661L5.05916 3.50679L4.28647 3.7817L4.78671 3.13179L4 2.90002L4.78671 2.66826L4.28647 2.01835L5.05916 2.29326L5.03647 1.47344L5.5 2.15002L5.96353 1.47344L5.94084 2.29326L6.71353 2.01835L6.21329 2.66826L7 2.90002L6.21329 3.13179L6.71353 3.7817L5.94084 3.50679L5.96353 4.32661L5.5 3.65002Z" fill="#FECA00"/>
</g>
</svg>

<svg width="16" height="12" fill="none" xmlns="http://www.w3.org/2000/svg">
  <mask id="a" maskUnits="userSpaceOnUse" x="0" y="0" width="16" height="12">
    <path fill="#fff" d="M0 0h16v12H0z"/>
  </mask>
  <g mask="url(#a)">
    <path fill-rule="evenodd" clip-rule="evenodd" d="M0 0h16v12H0V0z" fill="#F7FCFF"/>
    <path fill="#E31D1C" d="M.014 2.5h16v1.45h-16zm0 2.6h16v1.45h-16zm.042 2.5h16v1.25h-16zm0 2.5h16v1.35h-16z"/>
    <path fill-rule="evenodd" clip-rule="evenodd" d="M0 0h16v1.25H0V0z" fill="#E31D1C"/>
    <path fill-rule="evenodd" clip-rule="evenodd" d="M0 0h8v6H0V0z" fill="#3D58DB"/>
    <path fill-rule="evenodd" clip-rule="evenodd" d="M1.797 3.101c0 .688.324 1.339.983 1.339.99 0 1.182-.211 1.644-.502.109.245-.26 1.294-1.657 1.294C1.649 5.21.745 4.312.745 3.102c0-1.39 1.022-2.14 1.994-2.132.858 0 1.768.487 1.74 1.108-.404-.395-.843-.395-1.574-.395-.73 0-1.108.73-1.108 1.418z" fill="#FECA00"/>
    <path fill-rule="evenodd" clip-rule="evenodd" d="M5.5 3.65l-.464.677.023-.82-.773.275.5-.65L4 2.9l.787-.232-.5-.65.772.275-.023-.82.464.677.464-.677-.023.82.773-.275-.5.65L7 2.9l-.787.232.5.65-.772-.275.023.82L5.5 3.65z" fill="#FECA00"/>
  </g>
</svg>
